baidu.svg

<svg viewBox="0 0 24 24" xmlns="http://www.w3.org/2000/svg"><path d="M9.14926 0C7.70643 0 6.52029 1.64669 6.52029 3.70003C6.52029 5.75304 7.70609 7.40007 9.14926 7.40007C10.5914 7.40007 11.7782 5.75304 11.7782 3.70003C11.7782 1.64669 10.5914 1.98098e-06 9.14926 0ZM16.452 0.584216C15.0823 0.269354 13.3928 2.46441 13.2388 3.89477C13.051 5.64438 13.4523 7.3477 15.3809 7.5948C17.3115 7.84764 18.5414 5.84474 18.7888 4.28425C19.0417 2.72579 17.8156 0.895367 16.452 0.584216ZM3.40448 5.55005C1.28911 5.73849 0.970243 8.76324 0.970245 8.76324C0.683701 10.1781 1.67257 13.2206 4.2808 12.658C6.89341 12.0967 6.59682 8.95937 6.52029 8.27639C6.39152 7.22292 5.08464 5.40307 3.40448 5.55005ZM20.152 7.3027C17.8462 7.3027 17.523 9.40522 17.523 10.9054C17.523 12.3371 17.5807 14.2779 20.4441 14.2159C23.3045 14.1525 23.0731 10.9752 23.0731 10.2238C23.0731 9.47741 22.4531 7.3027 20.152 7.3027ZM11.4861 9.73693C10.2113 9.88522 9.126 10.7498 8.56505 11.6843C7.44652 13.558 5.69802 14.7781 5.44923 15.0922C5.19808 15.4 1.78415 17.1388 2.52815 20.4476C3.27384 23.7536 5.93608 23.7581 5.93608 23.7581C5.93608 23.7581 7.88792 23.9659 10.123 23.466C12.3627 22.9674 14.2125 23.5634 14.2125 23.5634C14.2125 23.5634 19.5033 25.2792 20.9309 21.9081C22.3603 18.5397 20.152 16.8449 20.152 16.8449C20.152 16.8449 17.1228 14.4724 15.3809 11.9764C14.1983 10.1363 12.7609 9.58864 11.4861 9.73693ZM9.63611 13.6317L11.194 13.6317L11.194 21.8107L7.78609 21.8107C6.31831 21.5168 5.71712 20.5221 5.64397 20.3502C5.57149 20.1779 5.13106 19.382 5.35186 18.0133C5.98496 15.9633 7.78609 15.7738 7.78609 15.7738L9.63611 15.7738L9.63611 13.6317ZM11.973 15.9686L13.6283 15.9686L13.6283 19.8633C13.725 20.2766 14.2125 20.3502 14.2125 20.3502L15.7704 20.3502L15.7704 15.9686L17.523 15.9686L17.523 21.8107L13.6283 21.8107C12.1112 21.4187 11.973 20.3502 11.973 20.3502L11.973 15.9686ZM8.17557 17.137C7.51584 17.3339 7.17362 17.7922 7.10451 18.0133C7.029 18.2341 6.85746 18.793 7.00714 19.2791C7.29739 20.3764 8.27294 20.4476 8.27294 20.4476L9.63611 20.4476L9.63611 17.137L8.17557 17.137Z" fill="#2319dc"/></svg>

<svg viewBox="0 0 24 24" xmlns="http://www.w3.org/2000/svg"><path d="M9.15 0C7.705 0 6.52 1.647 6.52 3.7s1.186 3.7 2.63 3.7c1.441 0 2.628-1.647 2.628-3.7S10.591 0 9.15 0Zm7.302.584c-1.37-.315-3.06 1.88-3.213 3.31-.188 1.75.213 3.454 2.142 3.7 1.93.254 3.16-1.75 3.408-3.31.253-1.558-.973-3.389-2.337-3.7ZM3.404 5.55C1.29 5.738.97 8.763.97 8.763c-.286 1.415.703 4.458 3.31 3.895 2.613-.561 2.317-3.699 2.24-4.382-.128-1.053-1.435-2.873-3.116-2.726Zm16.748 1.753c-2.306 0-2.629 2.102-2.629 3.602 0 1.432.058 3.373 2.921 3.31 2.86-.063 2.63-3.24 2.63-3.991 0-.747-.62-2.921-2.922-2.921Zm-8.666 2.434c-1.275.148-2.36 1.013-2.921 1.947-1.118 1.874-2.867 3.094-3.116 3.408-.25.308-3.665 2.047-2.92 5.356.745 3.306 3.407 3.31 3.407 3.31s1.952.208 4.187-.292c2.24-.499 4.09.097 4.09.097s5.29 1.716 6.718-1.655c1.43-3.368-.779-5.063-.779-5.063s-3.03-2.373-4.771-4.869c-1.183-1.84-2.62-2.387-3.895-2.24Zm-1.85 3.895h1.558v8.179H7.786c-1.468-.294-2.069-1.289-2.142-1.46-.073-.173-.513-.969-.292-2.338.633-2.05 2.434-2.24 2.434-2.24h1.85v-2.141Zm2.337 2.337h1.655v3.894c.097.414.585.487.585.487h1.557V15.97h1.753v5.842h-3.895c-1.517-.392-1.655-1.46-1.655-1.46v-4.382Zm-3.797 1.168c-.66.197-1.002.655-1.071.876-.076.221-.248.78-.098 1.266.29 1.097 1.266 1.169 1.266 1.169h1.363v-3.311h-1.46Z" fill="#2319dc"/></svg>
